src/assets/dateTheStrokes2.svg

<svg width="179" height="21" viewBox="0 0 179 21" fill="none" xmlns="http://www.w3.org/2000/svg">
<path d="M6.53922 0.659999C6.87922 0.659999 7.13922 0.769999 7.31922 0.989998C7.51922 1.21 7.61922 1.52 7.61922 1.92V19.74C7.61922 20.14 7.50922 20.45 7.28922 20.67C7.06922 20.89 6.75922 21 6.35922 21C5.51922 21 5.09922 20.58 5.09922 19.74V4.44L2.48922 6.87C2.20922 7.15 1.90922 7.29 1.58922 7.29C1.32922 7.29 1.08922 7.18 0.869219 6.96C0.629219 6.72 0.509219 6.46 0.509219 6.18C0.509219 5.86 0.659219 5.55 0.959219 5.25L4.97922 1.29C5.19922 1.07 5.42922 0.909999 5.66922 0.809999C5.90922 0.709999 6.19922 0.659999 6.53922 0.659999ZM22.2194 0.659999C24.2194 0.659999 25.6894 1.14 26.6294 2.1C27.5894 3.04 28.0694 4.5 28.0694 6.48V15.45C28.0694 17.33 27.6094 18.73 26.6894 19.65C25.7894 20.55 24.3994 21 22.5194 21H18.7994C15.5394 21 13.7194 19.6 13.3394 16.8C13.2794 16.38 13.3594 16.06 13.5794 15.84C13.7994 15.6 14.1194 15.48 14.5394 15.48C15.2994 15.48 15.7394 15.89 15.8594 16.71C15.9794 17.37 16.2594 17.83 16.6994 18.09C17.1394 18.35 17.8394 18.48 18.7994 18.48H22.5194C23.3194 18.48 23.9294 18.39 24.3494 18.21C24.7894 18.03 25.0994 17.73 25.2794 17.31C25.4594 16.87 25.5494 16.25 25.5494 15.45V12.96C24.7694 13.9 23.6594 14.37 22.2194 14.37H19.0994C17.1194 14.37 15.6494 13.89 14.6894 12.93C13.7294 11.97 13.2494 10.5 13.2494 8.52V6.51C13.2494 4.51 13.7294 3.04 14.6894 2.1C15.6494 1.14 17.1194 0.659999 19.0994 0.659999H22.2194ZM19.0994 3.18C18.2194 3.18 17.5394 3.28 17.0594 3.48C16.5994 3.68 16.2694 4.02 16.0694 4.5C15.8694 4.98 15.7694 5.65 15.7694 6.51V8.52C15.7694 9.4 15.8694 10.08 16.0694 10.56C16.2694 11.02 16.6094 11.35 17.0894 11.55C17.5694 11.75 18.2394 11.85 19.0994 11.85H22.2194C23.0994 11.85 23.7694 11.75 24.2294 11.55C24.7094 11.35 25.0494 11.02 25.2494 10.56C25.4494 10.08 25.5494 9.41 25.5494 8.55V6.48C25.5494 5.62 25.4494 4.96 25.2494 4.5C25.0494 4.02 24.7094 3.68 24.2294 3.48C23.7694 3.28 23.0994 3.18 22.2194 3.18H19.0994ZM42.317 0.659999C44.317 0.659999 45.787 1.14 46.727 2.1C47.687 3.04 48.167 4.5 48.167 6.48V15.45C48.167 17.33 47.707 18.73 46.787 19.65C45.887 20.55 44.497 21 42.617 21H38.897C35.637 21 33.817 19.6 33.437 16.8C33.377 16.38 33.457 16.06 33.677 15.84C33.897 15.6 34.217 15.48 34.637 15.48C35.397 15.48 35.837 15.89 35.957 16.71C36.077 17.37 36.357 17.83 36.797 18.09C37.237 18.35 37.937 18.48 38.897 18.48H42.617C43.417 18.48 44.027 18.39 44.447 18.21C44.887 18.03 45.197 17.73 45.377 17.31C45.557 16.87 45.647 16.25 45.647 15.45V12.96C44.867 13.9 43.757 14.37 42.317 14.37H39.197C37.217 14.37 35.747 13.89 34.787 12.93C33.827 11.97 33.347 10.5 33.347 8.52V6.51C33.347 4.51 33.827 3.04 34.787 2.1C35.747 1.14 37.217 0.659999 39.197 0.659999H42.317ZM39.197 3.18C38.317 3.18 37.637 3.28 37.157 3.48C36.697 3.68 36.367 4.02 36.167 4.5C35.967 4.98 35.867 5.65 35.867 6.51V8.52C35.867 9.4 35.967 10.08 36.167 10.56C36.367 11.02 36.707 11.35 37.187 11.55C37.667 11.75 38.337 11.85 39.197 11.85H42.317C43.197 11.85 43.867 11.75 44.327 11.55C44.807 11.35 45.147 11.02 45.347 10.56C45.547 10.08 45.647 9.41 45.647 8.55V6.48C45.647 5.62 45.547 4.96 45.347 4.5C45.147 4.02 44.807 3.68 44.327 3.48C43.867 3.28 43.197 3.18 42.317 3.18H39.197ZM66.0447 10.44C67.7247 11.38 68.5647 12.96 68.5647 15.18C68.5647 17.16 68.0847 18.63 67.1247 19.59C66.1847 20.53 64.7147 21 62.7147 21H59.2947C57.2947 21 55.8147 20.53 54.8547 19.59C53.9147 18.63 53.4447 17.16 53.4447 15.18C53.4447 12.9 54.3147 11.3 56.0547 10.38C54.7347 9.38 54.0747 7.96 54.0747 6.12C54.0747 4.28 54.5247 2.91 55.4247 2.01C56.3447 1.11 57.7447 0.659999 59.6247 0.659999H62.5347C64.4147 0.659999 65.8047 1.11 66.7047 2.01C67.6247 2.91 68.0847 4.28 68.0847 6.12C68.0847 8.06 67.4047 9.5 66.0447 10.44ZM59.6247 3.18C58.8247 3.18 58.2047 3.27 57.7647 3.45C57.3447 3.63 57.0447 3.93 56.8647 4.35C56.6847 4.77 56.5947 5.36 56.5947 6.12C56.5947 7.36 56.7847 8.21 57.1647 8.67C57.5447 9.13 58.2047 9.36 59.1447 9.36L62.5647 9.39C63.4047 9.39 64.0347 9.27 64.4547 9.03C64.8947 8.79 65.1847 8.44 65.3247 7.98C65.4847 7.5 65.5647 6.88 65.5647 6.12C65.5647 5.36 65.4747 4.77 65.2947 4.35C65.1147 3.93 64.8047 3.63 64.3647 3.45C63.9447 3.27 63.3347 3.18 62.5347 3.18H59.6247ZM62.7147 18.48C63.5947 18.48 64.2647 18.38 64.7247 18.18C65.2047 17.98 65.5447 17.65 65.7447 17.19C65.9447 16.71 66.0447 16.04 66.0447 15.18C66.0447 14.32 65.9447 13.66 65.7447 13.2C65.5447 12.72 65.2047 12.38 64.7247 12.18C64.2647 11.98 63.5947 11.88 62.7147 11.88H59.2947C58.4147 11.88 57.7347 11.98 57.2547 12.18C56.7947 12.38 56.4647 12.72 56.2647 13.2C56.0647 13.66 55.9647 14.32 55.9647 15.18C55.9647 16.04 56.0647 16.71 56.2647 17.19C56.4647 17.65 56.7947 17.98 57.2547 18.18C57.7347 18.38 58.4147 18.48 59.2947 18.48H62.7147ZM84.1989 13.95C83.9189 13.95 83.6689 13.85 83.4489 13.65C83.2489 13.43 83.1489 13.18 83.1489 12.9C83.1489 12.62 83.2489 12.38 83.4489 12.18C83.6689 11.96 83.9189 11.85 84.1989 11.85H92.4789C92.7589 11.85 92.9989 11.96 93.1989 12.18C93.4189 12.38 93.5289 12.62 93.5289 12.9C93.5289 13.18 93.4189 13.43 93.1989 13.65C92.9989 13.85 92.7589 13.95 92.4789 13.95H84.1989ZM108.383 21C107.963 21 107.643 20.9 107.423 20.7C107.203 20.48 107.093 20.16 107.093 19.74C107.093 18.1 107.423 16.73 108.083 15.63C108.743 14.51 109.473 13.66 110.273 13.08C111.073 12.5 112.173 11.81 113.573 11.01C115.033 10.19 116.053 9.59 116.633 9.21C117.233 8.81 117.703 8.38 118.043 7.92C118.403 7.44 118.583 6.87 118.583 6.21C118.583 5.41 118.493 4.8 118.313 4.38C118.133 3.94 117.823 3.63 117.383 3.45C116.963 3.27 116.353 3.18 115.553 3.18H112.343C111.383 3.18 110.683 3.31 110.243 3.57C109.803 3.83 109.523 4.29 109.403 4.95C109.323 5.37 109.183 5.68 108.983 5.88C108.783 6.08 108.483 6.18 108.083 6.18C107.663 6.18 107.343 6.07 107.123 5.85C106.903 5.61 106.813 5.28 106.853 4.86C107.073 3.44 107.633 2.39 108.533 1.71C109.433 1.01 110.703 0.659999 112.343 0.659999H115.553C117.433 0.659999 118.823 1.12 119.723 2.04C120.643 2.94 121.103 4.33 121.103 6.21C121.103 7.33 120.823 8.3 120.263 9.12C119.723 9.92 119.063 10.58 118.283 11.1C117.503 11.62 116.343 12.32 114.803 13.2C113.643 13.86 112.773 14.39 112.193 14.79C111.633 15.17 111.113 15.67 110.633 16.29C110.153 16.89 109.843 17.62 109.703 18.48H119.603C120.003 18.48 120.313 18.59 120.533 18.81C120.753 19.03 120.863 19.34 120.863 19.74C120.863 20.14 120.753 20.45 120.533 20.67C120.313 20.89 120.003 21 119.603 21H108.383ZM132.089 20.97C129.789 20.97 128.089 20.43 126.989 19.35C125.909 18.25 125.369 16.55 125.369 14.25V7.32C125.369 5 125.909 3.3 126.989 2.22C128.089 1.14 129.789 0.61 132.089 0.629999H133.889C136.189 0.629999 137.879 1.18 138.959 2.28C140.059 3.36 140.609 5.05 140.609 7.35V14.25C140.609 16.55 140.059 18.25 138.959 19.35C137.879 20.43 136.189 20.97 133.889 20.97H132.089ZM133.889 18.45C134.969 18.45 135.809 18.32 136.409 18.06C137.009 17.8 137.439 17.37 137.699 16.77C137.959 16.17 138.089 15.33 138.089 14.25V7.35C138.089 6.25 137.959 5.41 137.699 4.83C137.439 4.23 137.009 3.8 136.409 3.54C135.829 3.28 134.989 3.15 133.889 3.15H132.089C131.009 3.13 130.169 3.25 129.569 3.51C128.969 3.75 128.539 4.17 128.279 4.77C128.019 5.37 127.889 6.22 127.889 7.32V14.25C127.889 15.33 128.019 16.17 128.279 16.77C128.539 17.37 128.969 17.8 129.569 18.06C130.169 18.32 131.009 18.45 132.089 18.45H133.889ZM132.449 12.27C132.069 12.27 131.769 12.17 131.549 11.97C131.349 11.75 131.249 11.45 131.249 11.07V10.32C131.249 9.94 131.349 9.65 131.549 9.45C131.769 9.25 132.069 9.15 132.449 9.15H133.169C133.929 9.15 134.309 9.54 134.309 10.32V11.07C134.309 11.45 134.209 11.75 134.009 11.97C133.829 12.17 133.549 12.27 133.169 12.27H132.449ZM146.146 21C145.726 21 145.406 20.9 145.186 20.7C144.966 20.48 144.856 20.16 144.856 19.74C144.856 18.1 145.186 16.73 145.846 15.63C146.506 14.51 147.236 13.66 148.036 13.08C148.836 12.5 149.936 11.81 151.336 11.01C152.796 10.19 153.816 9.59 154.396 9.21C154.996 8.81 155.466 8.38 155.806 7.92C156.166 7.44 156.346 6.87 156.346 6.21C156.346 5.41 156.256 4.8 156.076 4.38C155.896 3.94 155.586 3.63 155.146 3.45C154.726 3.27 154.116 3.18 153.316 3.18H150.106C149.146 3.18 148.446 3.31 148.006 3.57C147.566 3.83 147.286 4.29 147.166 4.95C147.086 5.37 146.946 5.68 146.746 5.88C146.546 6.08 146.246 6.18 145.846 6.18C145.426 6.18 145.106 6.07 144.886 5.85C144.666 5.61 144.576 5.28 144.616 4.86C144.836 3.44 145.396 2.39 146.296 1.71C147.196 1.01 148.466 0.659999 150.106 0.659999H153.316C155.196 0.659999 156.586 1.12 157.486 2.04C158.406 2.94 158.866 4.33 158.866 6.21C158.866 7.33 158.586 8.3 158.026 9.12C157.486 9.92 156.826 10.58 156.046 11.1C155.266 11.62 154.106 12.32 152.566 13.2C151.406 13.86 150.536 14.39 149.956 14.79C149.396 15.17 148.876 15.67 148.396 16.29C147.916 16.89 147.606 17.62 147.466 18.48H157.366C157.766 18.48 158.076 18.59 158.296 18.81C158.516 19.03 158.626 19.34 158.626 19.74C158.626 20.14 158.516 20.45 158.296 20.67C158.076 20.89 157.766 21 157.366 21H146.146ZM169.852 20.97C167.552 20.97 165.852 20.43 164.752 19.35C163.672 18.25 163.132 16.55 163.132 14.25V7.32C163.132 5 163.672 3.3 164.752 2.22C165.852 1.14 167.552 0.61 169.852 0.629999H171.652C173.952 0.629999 175.642 1.18 176.722 2.28C177.822 3.36 178.372 5.05 178.372 7.35V14.25C178.372 16.55 177.822 18.25 176.722 19.35C175.642 20.43 173.952 20.97 171.652 20.97H169.852ZM171.652 18.45C172.732 18.45 173.572 18.32 174.172 18.06C174.772 17.8 175.202 17.37 175.462 16.77C175.722 16.17 175.852 15.33 175.852 14.25V7.35C175.852 6.25 175.722 5.41 175.462 4.83C175.202 4.23 174.772 3.8 174.172 3.54C173.592 3.28 172.752 3.15 171.652 3.15H169.852C168.772 3.13 167.932 3.25 167.332 3.51C166.732 3.75 166.302 4.17 166.042 4.77C165.782 5.37 165.652 6.22 165.652 7.32V14.25C165.652 15.33 165.782 16.17 166.042 16.77C166.302 17.37 166.732 17.8 167.332 18.06C167.932 18.32 168.772 18.45 169.852 18.45H171.652ZM170.212 12.27C169.832 12.27 169.532 12.17 169.312 11.97C169.112 11.75 169.012 11.45 169.012 11.07V10.32C169.012 9.94 169.112 9.65 169.312 9.45C169.532 9.25 169.832 9.15 170.212 9.15H170.932C171.692 9.15 172.072 9.54 172.072 10.32V11.07C172.072 11.45 171.972 11.75 171.772 11.97C171.592 12.17 171.312 12.27 170.932 12.27H170.212Z" fill="#FFC045"/>
</svg>

<svg width="179" height="21" fill="none" xmlns="http://www.w3.org/2000/svg"><path d="M6.54.66c.34 0 .6.11.78.33.2.22.3.53.3.93v17.82c0 .4-.11.71-.33.93-.22.22-.53.33-.93.33-.84 0-1.26-.42-1.26-1.26V4.44L2.49 6.87c-.28.28-.58.42-.9.42-.26 0-.5-.11-.72-.33-.24-.24-.36-.5-.36-.78 0-.32.15-.63.45-.93l4.02-3.96c.22-.22.45-.38.69-.48.24-.1.53-.15.87-.15zm15.68 0c2 0 3.47.48 4.41 1.44.96.94 1.44 2.4 1.44 4.38v8.97c0 1.88-.46 3.28-1.38 4.2-.9.9-2.29 1.35-4.17 1.35H18.8c-3.26 0-5.08-1.4-5.46-4.2-.06-.42.02-.74.24-.96.22-.24.54-.36.96-.36.76 0 1.2.41 1.32 1.23.12.66.4 1.12.84 1.38.44.26 1.14.39 2.1.39h3.72c.8 0 1.41-.09 1.83-.27.44-.18.75-.48.93-.9.18-.44.27-1.06.27-1.86v-2.49c-.78.94-1.89 1.41-3.33 1.41H19.1c-1.98 0-3.45-.48-4.41-1.44s-1.44-2.43-1.44-4.41V6.51c0-2 .48-3.47 1.44-4.41.96-.96 2.43-1.44 4.41-1.44h3.12zM19.1 3.18c-.88 0-1.56.1-2.04.3-.46.2-.79.54-.99 1.02-.2.48-.3 1.15-.3 2.01v2.01c0 .88.1 1.56.3 2.04.2.46.54.79 1.02.99.48.2 1.15.3 2.01.3h3.12c.88 0 1.55-.1 2.01-.3.48-.2.82-.53 1.02-.99.2-.48.3-1.15.3-2.01V6.48c0-.86-.1-1.52-.3-1.98-.2-.48-.54-.82-1.02-1.02-.46-.2-1.13-.3-2.01-.3H19.1zM42.316.66c2 0 3.47.48 4.41 1.44.96.94 1.44 2.4 1.44 4.38v8.97c0 1.88-.46 3.28-1.38 4.2-.9.9-2.29 1.35-4.17 1.35h-3.72c-3.26 0-5.08-1.4-5.46-4.2-.06-.42.02-.74.24-.96.22-.24.54-.36.96-.36.76 0 1.2.41 1.32 1.23.12.66.4 1.12.84 1.38.44.26 1.14.39 2.1.39h3.72c.8 0 1.41-.09 1.83-.27.44-.18.75-.48.93-.9.18-.44.27-1.06.27-1.86v-2.49c-.78.94-1.89 1.41-3.33 1.41h-3.12c-1.98 0-3.45-.48-4.41-1.44s-1.44-2.43-1.44-4.41V6.51c0-2 .48-3.47 1.44-4.41.96-.96 2.43-1.44 4.41-1.44h3.12zm-3.12 2.52c-.88 0-1.56.1-2.04.3-.46.2-.79.54-.99 1.02-.2.48-.3 1.15-.3 2.01v2.01c0 .88.1 1.56.3 2.04.2.46.54.79 1.02.99.48.2 1.15.3 2.01.3h3.12c.88 0 1.55-.1 2.01-.3.48-.2.82-.53 1.02-.99.2-.48.3-1.15.3-2.01V6.48c0-.86-.1-1.52-.3-1.98-.2-.48-.54-.82-1.02-1.02-.46-.2-1.13-.3-2.01-.3h-3.12zm26.848 7.26c1.68.94 2.52 2.52 2.52 4.74 0 1.98-.48 3.45-1.44 4.41-.94.94-2.41 1.41-4.41 1.41h-3.42c-2 0-3.48-.47-4.44-1.41-.94-.96-1.41-2.43-1.41-4.41 0-2.28.87-3.88 2.61-4.8-1.32-1-1.98-2.42-1.98-4.26 0-1.84.45-3.21 1.35-4.11.92-.9 2.32-1.35 4.2-1.35h2.91c1.88 0 3.27.45 4.17 1.35.92.9 1.38 2.27 1.38 4.11 0 1.94-.68 3.38-2.04 4.32zm-6.42-7.26c-.8 0-1.42.09-1.86.27-.42.18-.72.48-.9.9-.18.42-.27 1.01-.27 1.77 0 1.24.19 2.09.57 2.55.38.46 1.04.69 1.98.69l3.42.03c.84 0 1.47-.12 1.89-.36.44-.24.73-.59.87-1.05.16-.48.24-1.1.24-1.86s-.09-1.35-.27-1.77c-.18-.42-.49-.72-.93-.9-.42-.18-1.03-.27-1.83-.27h-2.91zm3.09 15.3c.88 0 1.55-.1 2.01-.3.48-.2.82-.53 1.02-.99.2-.48.3-1.15.3-2.01 0-.86-.1-1.52-.3-1.98-.2-.48-.54-.82-1.02-1.02-.46-.2-1.13-.3-2.01-.3h-3.42c-.88 0-1.56.1-2.04.3-.46.2-.79.54-.99 1.02-.2.46-.3 1.12-.3 1.98 0 .86.1 1.53.3 2.01.2.46.53.79.99.99.48.2 1.16.3 2.04.3h3.42zm21.484-4.53c-.28 0-.53-.1-.75-.3-.2-.22-.3-.47-.3-.75s.1-.52.3-.72c.22-.22.47-.33.75-.33h8.28c.28 0 .52.11.72.33.22.2.33.44.33.72 0 .28-.11.53-.33.75-.2.2-.44.3-.72.3h-8.28zM108.383 21c-.42 0-.74-.1-.96-.3-.22-.22-.33-.54-.33-.96 0-1.64.33-3.01.99-4.11.66-1.12 1.39-1.97 2.19-2.55.8-.58 1.9-1.27 3.3-2.07 1.46-.82 2.48-1.42 3.06-1.8.6-.4 1.07-.83 1.41-1.29.36-.48.54-1.05.54-1.71 0-.8-.09-1.41-.27-1.83-.18-.44-.49-.75-.93-.93-.42-.18-1.03-.27-1.83-.27h-3.21c-.96 0-1.66.13-2.1.39-.44.26-.72.72-.84 1.38-.08.42-.22.73-.42.93-.2.2-.5.3-.9.3-.42 0-.74-.11-.96-.33-.22-.24-.31-.57-.27-.99.22-1.42.78-2.47 1.68-3.15.9-.7 2.17-1.05 3.81-1.05h3.21c1.88 0 3.27.46 4.17 1.38.92.9 1.38 2.29 1.38 4.17 0 1.12-.28 2.09-.84 2.91-.54.8-1.2 1.46-1.98 1.98s-1.94 1.22-3.48 2.1c-1.16.66-2.03 1.19-2.61 1.59-.56.38-1.08.88-1.56 1.5-.48.6-.79 1.33-.93 2.19h9.9c.4 0 .71.11.93.33.22.22.33.53.33.93s-.11.71-.33.93c-.22.22-.53.33-.93.33h-11.22zm23.706-.03c-2.3 0-4-.54-5.1-1.62-1.08-1.1-1.62-2.8-1.62-5.1V7.32c0-2.32.54-4.02 1.62-5.1 1.1-1.08 2.8-1.61 5.1-1.59h1.8c2.3 0 3.99.55 5.07 1.65 1.1 1.08 1.65 2.77 1.65 5.07v6.9c0 2.3-.55 4-1.65 5.1-1.08 1.08-2.77 1.62-5.07 1.62h-1.8zm1.8-2.52c1.08 0 1.92-.13 2.52-.39.6-.26 1.03-.69 1.29-1.29.26-.6.39-1.44.39-2.52v-6.9c0-1.1-.13-1.94-.39-2.52-.26-.6-.69-1.03-1.29-1.29-.58-.26-1.42-.39-2.52-.39h-1.8c-1.08-.02-1.92.1-2.52.36-.6.24-1.03.66-1.29 1.26s-.39 1.45-.39 2.55v6.93c0 1.08.13 1.92.39 2.52.26.6.69 1.03 1.29 1.29.6.26 1.44.39 2.52.39h1.8zm-1.44-6.18c-.38 0-.68-.1-.9-.3-.2-.22-.3-.52-.3-.9v-.75c0-.38.1-.67.3-.87.22-.2.52-.3.9-.3h.72c.76 0 1.14.39 1.14 1.17v.75c0 .38-.1.68-.3.9-.18.2-.46.3-.84.3h-.72zM146.146 21c-.42 0-.74-.1-.96-.3-.22-.22-.33-.54-.33-.96 0-1.64.33-3.01.99-4.11.66-1.12 1.39-1.97 2.19-2.55.8-.58 1.9-1.27 3.3-2.07 1.46-.82 2.48-1.42 3.06-1.8.6-.4 1.07-.83 1.41-1.29.36-.48.54-1.05.54-1.71 0-.8-.09-1.41-.27-1.83-.18-.44-.49-.75-.93-.93-.42-.18-1.03-.27-1.83-.27h-3.21c-.96 0-1.66.13-2.1.39-.44.26-.72.72-.84 1.38-.08.42-.22.73-.42.93-.2.2-.5.3-.9.3-.42 0-.74-.11-.96-.33-.22-.24-.31-.57-.27-.99.22-1.42.78-2.47 1.68-3.15.9-.7 2.17-1.05 3.81-1.05h3.21c1.88 0 3.27.46 4.17 1.38.92.9 1.38 2.29 1.38 4.17 0 1.12-.28 2.09-.84 2.91-.54.8-1.2 1.46-1.98 1.98s-1.94 1.22-3.48 2.1c-1.16.66-2.03 1.19-2.61 1.59-.56.38-1.08.88-1.56 1.5-.48.6-.79 1.33-.93 2.19h9.9c.4 0 .71.11.93.33.22.22.33.53.33.93s-.11.71-.33.93c-.22.22-.53.33-.93.33h-11.22zm23.706-.03c-2.3 0-4-.54-5.1-1.62-1.08-1.1-1.62-2.8-1.62-5.1V7.32c0-2.32.54-4.02 1.62-5.1 1.1-1.08 2.8-1.61 5.1-1.59h1.8c2.3 0 3.99.55 5.07 1.65 1.1 1.08 1.65 2.77 1.65 5.07v6.9c0 2.3-.55 4-1.65 5.1-1.08 1.08-2.77 1.62-5.07 1.62h-1.8zm1.8-2.52c1.08 0 1.92-.13 2.52-.39.6-.26 1.03-.69 1.29-1.29.26-.6.39-1.44.39-2.52v-6.9c0-1.1-.13-1.94-.39-2.52-.26-.6-.69-1.03-1.29-1.29-.58-.26-1.42-.39-2.52-.39h-1.8c-1.08-.02-1.92.1-2.52.36-.6.24-1.03.66-1.29 1.26s-.39 1.45-.39 2.55v6.93c0 1.08.13 1.92.39 2.52.26.6.69 1.03 1.29 1.29.6.26 1.44.39 2.52.39h1.8zm-1.44-6.18c-.38 0-.68-.1-.9-.3-.2-.22-.3-.52-.3-.9v-.75c0-.38.1-.67.3-.87.22-.2.52-.3.9-.3h.72c.76 0 1.14.39 1.14 1.17v.75c0 .38-.1.68-.3.9-.18.2-.46.3-.84.3h-.72z" fill="#FFC045"/></svg>
